X: 1
T:Bourree a Huit
N:abc transcription Simon Wascher
N:if you find an error in this transcription please inform simon.wascher@chello.at
M:3/8
L:1/16
K:C
g4^f2|g4de|f2e2d2|e2c2G2|
g4^f2|g4de|f2e2d2|c4G2:|
|:c2B2c2|G4c2|d3ged|e2c2G2|
c2B2A2|G4c2|d4B2|c4G2:|
